X:114
M:2/4
L:1/8
K:G
E | A>B cd | ed ea | ge de/d/ | cA GE | 
g | a2 ge | dB gf/g/ | aA AB/^c/ | dB GE | 

